X:1670
T:Lost Lady Found
F:http://www.vwml.org/record/CJS2/10/1670
S:Job Francis of Shipley, Sussex
Z:transcribed by Alice Baillie
M:3/4
L:1/4
K:G
G/B/ | d d B | e d (d/c/) | B (B/A/) "(a)"(G/B/) | A2 "(c)"(G/A/) | (B/A/) "b"G E | 
w: Twas_ down in the val-ley a_ dam-sel_ did_ dwell She_ lived_ with her 
D G (G/A/) | (B/d/) B A | G2 || 
w: un-cle we_ all_ knew full well
T:[Alternative 'a' music]
B B/A/ "(a)"G | A2
T:[Alternative 'b' music]
B A G "b"| D G G/A/ || 
T:[Alternative 'c' music]
[M:C] A2 "(c)"G> A  | 
N:of (c) "(very frequently)"

